X: 27080
T: Miss Johnstone's
R: slip jig
M: 9/8
K: Gmajor
2 b2g a2f g2e|d2c A2B cBA||
2 a2f g2e d2B|A2G A2B cBA||
2 a2c' f2a g2a|b2g a2g fed||or a2c' f2a g2a|b2g f2d cBA||
2 a3 a2g f2g|a2b a2g fed||or a3 a2g f2g|a2g f2d cBA||

